X:18303
T:Villey Vous Dance,bass part. JNu.40
M:6/8
Q:100
S:James Nuttall MS,c1830?,Rossendale,East Lancs.
O:England
A:East Lancashire
Z:Chris Partington
K:D
"thirdo,read as bass clef"
z|b2bb2b|f2fB3|f2ff2e|d2cB3|!
B2BB2B|f2fB2B|f2ef2e|F2FB2::!
z|f2zf2z|B2zf2z|f2zf2z|B2zf2z|!
a6|f2zf2z|B2zc2z|c2zF2::!
z|.B2Z.B2Z|.F2Z.B2Z|.F2Z.F2Z|Bdf.B2z|!
b2bb2b|f2fB2B|e2ef2f|F2FB2:|]


